svgs/nextcloud.svg

<svg width="24" height="24" viewBox="0 0 24 24" fill="none" xmlns="http://www.w3.org/2000/svg">
<path d="M22 12.0175C21.9925 10.3674 20.6717 9.03252 19.04 9.02499H19.0392C17.8592 9.02499 16.8475 9.74761 16.3733 10.7655C15.8283 8.84183 14.0875 7.41583 12.015 7.41667C9.93167 7.41667 8.18167 8.85856 7.6475 10.7972C7.18083 9.76016 6.15333 9.02499 4.96 9.02499C3.32833 9.03336 2.0075 10.3682 2 12.0158V12.0167C2.0075 13.6651 3.32833 15 4.95917 15.0083H4.96C6.15333 15.0083 7.18 14.2723 7.64667 13.2352C8.18083 15.1756 9.93167 16.6167 12.015 16.6167C14.0875 16.6167 15.8283 15.1907 16.3742 13.2679C16.8483 14.2866 17.86 15.0083 19.0392 15.0083C20.6717 15.0016 21.9933 13.666 22 12.0175ZM4.96 13.2528C4.95667 13.2528 4.95167 13.2528 4.9475 13.2528C4.27917 13.2528 3.7375 12.7058 3.7375 12.03C3.7375 12.025 3.7375 12.0208 3.7375 12.0167C3.7375 11.3233 4.27417 10.7814 4.96 10.7814V10.7805C5.645 10.7805 6.1825 11.3233 6.1825 12.0167C6.1825 12.71 5.64583 13.252 4.96 13.2528ZM12.015 14.8611C12.0117 14.8611 12.0067 14.8611 12.0025 14.8611C10.455 14.8611 9.20083 13.594 9.20083 12.03C9.20083 12.025 9.20083 12.0208 9.20083 12.0167C9.20083 10.4351 10.4508 9.17219 12.015 9.17219C13.58 9.17219 14.83 10.4351 14.83 12.0167C14.83 13.5982 13.58 14.8611 12.015 14.8611ZM19.0392 13.2528C19.0358 13.2528 19.0308 13.2528 19.0267 13.2528C18.3583 13.2528 17.8167 12.7058 17.8167 12.03C17.8167 12.025 17.8167 12.0208 17.8167 12.0167C17.8167 11.3233 18.3533 10.7814 19.0392 10.7814V10.7805C19.725 10.7805 20.2625 11.3233 20.2625 12.0167C20.2625 12.71 19.725 13.2528 19.0392 13.2528Z" fill="black"/>
</svg>

<svg width="24" height="24" viewBox="0 0 24 24" fill="none" xmlns="http://www.w3.org/2000/svg"><path d="M22 12.018c-.008-1.65-1.328-2.985-2.96-2.993-1.18 0-2.192.723-2.667 1.74-.545-1.923-2.286-3.35-4.358-3.348-2.083 0-3.833 1.442-4.368 3.38C7.181 9.76 6.154 9.025 4.96 9.025c-1.632.008-2.953 1.343-2.96 2.99v.002c.007 1.648 1.328 2.983 2.96 2.991 1.193 0 2.22-.736 2.687-1.773.534 1.94 2.285 3.382 4.368 3.382 2.072 0 3.813-1.426 4.36-3.35.473 1.02 1.485 1.741 2.664 1.741 1.633-.006 2.954-1.342 2.961-2.99ZM4.96 13.252h-.013c-.668 0-1.21-.547-1.21-1.223v-.013c0-.694.537-1.236 1.223-1.236.685 0 1.223.542 1.223 1.236 0 .693-.537 1.235-1.223 1.236Zm7.055 1.608h-.013c-1.547 0-2.801-1.267-2.801-2.831v-.013c0-1.582 1.25-2.845 2.814-2.845 1.565 0 2.815 1.263 2.815 2.845 0 1.581-1.25 2.844-2.815 2.844Zm7.024-1.608h-.012c-.669 0-1.21-.547-1.21-1.223v-.013c0-.694.536-1.236 1.222-1.236.686 0 1.223.542 1.223 1.236 0 .693-.537 1.236-1.223 1.236Z" fill="#000"/></svg>
